!!!OTL: "Kriegers Abschied" LEBT WOHL IHR DEUTSCHEN MAEGDELEIN
!!!ARE: Europa, Mitteleuropa, Deutschland, Niederrhein
!!!SCT: Z1137
!!!YEM: Copyright 1995, estate of Helmut Schaffrath.
**kern
*ICvox
*Ivox
*M6/8
*k[f#]
*e:
{8e
=1
4gn
8gn
8gn
8f#
8gn
=2
4f#
8f#
4d#}
{8e
=3
4gn
8f#
4f#
8f#
=4
8gn
8f#
8e
4f#}
{8f#
=5
4gn
8gn
8b
8a
8gn
=6
8f#
8f#
8f#
4e}
{8e
=7
4e
8e
8e
8f#
8gn
=8
8e
8d#
8d#
4d#}
{8d#
=9
4d#
8d#
8e
8e
8f#
=10
4.b
4a
8gn
=11
2.f#
=12
4e
4.r}
==
!!!AGN: Vaterland und Wehr
!!!ONB: ESAC (Essen Associative Code) Database: ZUCCAL
!!!AMT: compound duple
!!!AIN: vox
!!!EED: Helmut Schaffrath
!!!EEV: 1.0
*-
